!!!OTL: Jimmie and Nancy
!!!ONM: 41.
**kern
*clefG2
*k[b-]
*F:
*M3/4
*MM80
{4f
4a
4cc
=2
4ff
4r
8ee
8ff
=3
4gg
4gg
(8gg
8ff)
=4
4dd
4cc
4r}
=5
{4ff
4ee
4dd
=6
8cc
4.f
8r
8cc
=7
4b-
4.a
8g
=8
4.f
8r}
{8cc
8cc
=9
4ff
4ee
4dd
=10
4.cc
8dd
4ee
=11
4ff
4ee
4dd
=12
(4.cc
8a)
4f}
=13
{4cc
4.cc
8cc
=14
(8dd
8cc)
4.a
8g
=15
4b-
4.a
8g
=16
2f
4r}
==
*-
!!!CNT: Folksongs of Maritime Canada
!!!MRD: 1928///-1932///
!!!OCL: Helen Creighton
!!!YOR: Songs and Ballads from Nova Scotia
!!!PPR: J.M. Dent & Sons, Limited
!!!PPP: Toronto, Canada
!!!PDT: 1932///
!!!reprint: Dover Publications, 1992: ISBN 0-486-21703-5
!!!ENC1: Craig Stuart Sapp (music and bibliographic data)                       
!!!ENC2: Marcus Pearce (phrase markings and key designations)                   
!!!ENC3: Darrell Conklin (phrase markings and key designations)   
!!!END: 2002/04/10/
!!!EEV: 2004/06/05
!!!MPN: Mr. Ben Henneberry
!!!PPG: 81
!!!EFL: 41/152
!!!ARE: Canada; Nova Scotia
!!!verses: 8
!!!VTS: 3676819348
